X:71
T: Graf und Nonne (Die Nonne)
N: Q1155H
O: Mitteleuropa, Deutschland (BRD) , Nordrhein - Westfalen, Elberfeld
N: Melodievergleich zu Q0155I., anderes Lied. Refrain in der vierten
N: Zeile (z.T. sinnfreie Silben) . Vorletzten Takt rhythmisch
N: korrigiert.
R: Liebes - Lied
M: 2/4
L: 1/16
K: G
D2 | G3DB,2D2 | G4G2
B2 | A3GF2G2 | A4z2
GA | B2B2B2B2 | B2c2d2
B2 | d2A2A2A2 | A2B2c2
d2 | B2B2AGAB | G4z2

@@@ Tune index: 1781
